X:135
T: Camel's Hump
C: BB
H: Thanks to Skip Healy for recording this on his "Purgatory Chasm" CD!
R: reel
Q: 1/8=350
M: 4/4
L: 1/8
K: C
"E"B,E E2 "E"B,E^GE|B,E^GA "Bb"_BAFD|"E"B,E E2 "E"B,E^GA|"Bb"_BAFD "E"E2 ED|
"E"B,E E2 "E"B,E^GE|B,E^GA "Bb"_BAFD|"E"FE (3EDE ^GE (3EDE|"Bb"_BAFD "E"E4 :|
"E"eB (3B^AB ^gB (3BAB|"Am"(3c=BA eA fAeA|"E"eB (3B^AB ^gB (3BAB|"Am"afef e2 fe|
"E"eB (3B^AB ^gB (3BAB|"Am"(3c=BA eA fAeA|"E"B^G G2 "F"AF F2|"Bdim"BA^GF "E"E4 :|
%%%%%%%%%%%%%%%%%%%%%%%%%%%%%%%%%%%%%%%%%%%
